X: 9087
T: Da Norna
R: reel
M: 4/4
K: Dmajor
|:d3 f edBd|AGFE D3 E|FEFA BABd|AFED CEAc|
dcdf edBd|AGFE D2 A2|BdBG AFEG|1 F2 D2 D2 Ac:|2 F2 D2 D2 g2||
fdbd adfd|BAGB A2 F2|GFGB Adcd|BE^GB A3 g|
fdBA GABd|AFBF G2 Ac|dAFA GBAG|F2 D2 D2 g2|
fdbd adfd|BAGB A2 F2|GFGB Adcd|BE^GB A3 c|
d2 df edBd|AGFE D2 A2|BdBG AFDE|F2 D2 D2||

